X:748
T:Reel 748
M:4/4
K:Gmaj
L:1/8
BA|GFGB A2cA|BABc dgaf|edcB ABcA|BGAF G2EF|GFGB A2Ac|BABc d2ga|bgaf gfeg|fdcA G2|Bc|dggf g2fg|abag fddc|dcBA G2AG|FGAB c2Bc|dggf g2fg|abag fddg|fgaf gfed|egfa g2|
